public/nft/svgs/marketplaces/opensea-grey.svg

<svg width="20" height="20" viewBox="0 0 20 20" fill="none" xmlns="http://www.w3.org/2000/svg">
<path d="M10 1C5.0302 1 1 5.0302 1 10C1 14.9698 5.0302 19 10 19C14.9698 19 19 14.9698 19 10C19 5.0302 14.9716 1 10 1ZM5.4406 10.3024L5.4784 10.2412L7.8202 6.5782C7.8544 6.526 7.9354 6.5314 7.9606 6.589C8.3512 7.4656 8.6896 8.5564 8.5312 9.235C8.4646 9.514 8.2792 9.892 8.0704 10.2412C8.0434 10.2916 8.0146 10.342 7.9822 10.3906C7.9678 10.4122 7.9426 10.4248 7.9156 10.4248H5.509C5.4442 10.4248 5.4064 10.3546 5.4406 10.3024ZM15.8752 11.5624C15.8752 11.5966 15.8554 11.6254 15.8266 11.638C15.6448 11.7154 15.0238 12.0016 14.7664 12.3598C14.1076 13.276 13.6054 14.5864 12.4804 14.5864H7.7896C6.1264 14.5864 4.78 13.2346 4.78 11.566V11.512C4.78 11.4688 4.816 11.4328 4.861 11.4328H7.4746C7.5268 11.4328 7.5646 11.4796 7.561 11.5318C7.5412 11.701 7.5736 11.8756 7.6546 12.034C7.8094 12.349 8.1316 12.5452 8.479 12.5452H9.7732V11.5354H8.4934C8.4286 11.5354 8.389 11.4598 8.4268 11.4058C8.4412 11.3842 8.4556 11.3626 8.4736 11.3374C8.5942 11.1646 8.767 10.8982 8.9398 10.594C9.0568 10.3888 9.1702 10.1692 9.262 9.9496C9.28 9.91 9.2944 9.8686 9.3106 9.829C9.3358 9.7588 9.361 9.6922 9.379 9.6274C9.397 9.5716 9.4132 9.514 9.4276 9.46C9.4708 9.2728 9.4888 9.0748 9.4888 8.8696C9.4888 8.7886 9.4852 8.704 9.478 8.6248C9.4744 8.5366 9.4636 8.4484 9.4528 8.3602C9.4456 8.2828 9.4312 8.2054 9.4168 8.1262C9.397 8.0092 9.3718 7.8922 9.343 7.7752L9.3322 7.7302C9.3106 7.6492 9.2908 7.5736 9.2656 7.4926C9.1918 7.2406 9.109 6.994 9.019 6.7636C8.9866 6.6718 8.9506 6.5836 8.9128 6.4972C8.8588 6.364 8.803 6.2434 8.7526 6.13C8.7256 6.0778 8.704 6.031 8.6824 5.9824C8.6572 5.9284 8.632 5.8744 8.605 5.8222C8.587 5.7826 8.5654 5.7448 8.551 5.7088L8.3926 5.4172C8.371 5.3776 8.407 5.329 8.4502 5.3416L9.4402 5.6098H9.4438C9.4456 5.6098 9.4456 5.6098 9.4474 5.6098L9.577 5.6476L9.721 5.6872L9.7732 5.7016V5.1148C9.7732 4.8304 10 4.6 10.2826 4.6C10.423 4.6 10.5508 4.6576 10.6408 4.7512C10.7326 4.8448 10.7902 4.9726 10.7902 5.1148V5.9878L10.8964 6.0166C10.9036 6.0202 10.9126 6.0238 10.9198 6.0292C10.945 6.0472 10.9828 6.076 11.0296 6.112C11.0674 6.1408 11.107 6.1768 11.1538 6.2146C11.2492 6.292 11.3644 6.391 11.4886 6.5044C11.521 6.5332 11.5534 6.562 11.584 6.5926C11.7442 6.742 11.9242 6.9166 12.097 7.111C12.1456 7.1668 12.1924 7.2208 12.241 7.2802C12.2878 7.3396 12.34 7.3972 12.3832 7.4548C12.4426 7.5322 12.5038 7.6132 12.5596 7.6978C12.5848 7.7374 12.6154 7.7788 12.6388 7.8184C12.7108 7.9246 12.772 8.0344 12.8314 8.1442C12.8566 8.1946 12.8818 8.2504 12.9034 8.3044C12.97 8.452 13.0222 8.6014 13.0546 8.7526C13.0654 8.785 13.0726 8.8192 13.0762 8.8516V8.8588C13.087 8.902 13.0906 8.9488 13.0942 8.9974C13.1086 9.1504 13.1014 9.3052 13.069 9.46C13.0546 9.5248 13.0366 9.586 13.015 9.6526C12.9916 9.7156 12.97 9.7804 12.9412 9.8434C12.8854 9.9712 12.8206 10.1008 12.7432 10.2196C12.718 10.2646 12.6874 10.3114 12.6586 10.3564C12.6262 10.4032 12.592 10.4482 12.5632 10.4914C12.5218 10.5472 12.4786 10.6048 12.4336 10.657C12.394 10.711 12.3544 10.765 12.3094 10.8136C12.2482 10.8874 12.1888 10.9558 12.1258 11.0224C12.0898 11.0656 12.0502 11.1106 12.0088 11.1502C11.9692 11.1952 11.9278 11.2348 11.8918 11.2708C11.8288 11.3338 11.7784 11.3806 11.7352 11.422L11.6326 11.5138C11.6182 11.5282 11.5984 11.5354 11.5786 11.5354H10.7902V12.5452H11.782C12.0034 12.5452 12.214 12.4678 12.385 12.322C12.4426 12.2716 12.6964 12.052 12.997 11.7208C13.0078 11.7082 13.0204 11.701 13.0348 11.6974L15.7726 10.9054C15.8248 10.891 15.8752 10.9288 15.8752 10.9828V11.5624Z" fill="#9B9B9B"/>
</svg>

<svg xmlns="http://www.w3.org/2000/svg" width="20" height="20" fill="none" xmlns:v="https://vecta.io/nano"><path d="M10 1c-4.97 0-9 4.03-9 9s4.03 9 9 9 9-4.03 9-9a9 9 0 0 0-9-9zm-4.559 9.302l.038-.061L7.82 6.578c.034-.052.115-.047.14.011.391.877.729 1.967.571 2.646-.067.279-.252.657-.461 1.006-.027.05-.056.101-.088.149-.014.022-.04.034-.067.034H5.509c-.065 0-.103-.07-.068-.122zm10.435 1.26c0 .034-.02.063-.049.076-.182.077-.803.364-1.06.722-.659.916-1.161 2.227-2.286 2.227H7.79c-1.663 0-3.01-1.352-3.01-3.02v-.054c0-.043.036-.079.081-.079h2.614c.052 0 .09.047.086.099a.88.88 0 0 0 .094.502.92.92 0 0 0 .824.511h1.294v-1.01h-1.28c-.065 0-.104-.076-.067-.13l.047-.068c.121-.173.293-.439.466-.743.117-.205.23-.425.322-.644.018-.04.032-.081.049-.121.025-.07.05-.137.068-.202.018-.056.034-.113.049-.167.043-.187.061-.385.061-.59 0-.081-.004-.166-.011-.245-.004-.088-.014-.176-.025-.265-.007-.077-.022-.155-.036-.234a4.87 4.87 0 0 0-.074-.351l-.011-.045c-.022-.081-.041-.157-.067-.238a8.87 8.87 0 0 0-.247-.729 3.91 3.91 0 0 0-.106-.266c-.054-.133-.11-.254-.16-.367-.027-.052-.049-.099-.07-.148l-.077-.16c-.018-.04-.04-.077-.054-.113l-.158-.292c-.022-.04.014-.088.058-.076l.99.268h.004l.133.038.144.04.052.014v-.587a.51.51 0 0 1 .509-.515c.14 0 .268.058.358.151s.149.221.149.364v.873l.106.029c.007.004.016.007.023.013.025.018.063.047.11.083.038.029.077.065.124.103.095.077.211.176.335.29.032.029.065.058.095.088.16.149.34.324.513.518l.144.169c.047.059.099.117.142.175a4.21 4.21 0 0 1 .176.243c.025.04.056.081.079.121a3.77 3.77 0 0 1 .193.326 2.16 2.16 0 0 1 .072.16 2.23 2.23 0 0 1 .151.448.49.49 0 0 1 .022.099v.007a.83.83 0 0 1 .018.139c.014.153.007.308-.025.463a2.07 2.07 0 0 1-.054.193c-.023.063-.045.128-.074.191a2.59 2.59 0 0 1-.198.376c-.025.045-.056.092-.085.137l-.095.135c-.041.056-.085.113-.13.166-.04.054-.079.108-.124.157a4.22 4.22 0 0 1-.184.209 1.56 1.56 0 0 1-.117.128c-.04.045-.081.085-.117.121-.063.063-.113.11-.157.151l-.103.092c-.014.014-.034.022-.054.022h-.788v1.01h.992a.92.92 0 0 0 .603-.223c.058-.05.311-.27.612-.601.011-.013.023-.02.038-.023l2.738-.792a.08.08 0 0 1 .103.077v.58z" fill="#9b9b9b"/></svg>
